X:1
T:There Is a Balm in Gilead
T:Text and tune: Afro-American spiritual
T:irregular BALM IN GILEAD www.hymnary.org/text/sometimes_i_feel_discouraged_spiritual
T:There Is a Balm in Gilead
T:This hymn is in the public domain. You may freely use this score for personal and congregational worship. If you reproduce the score, please credit Hymnary.org as the source. 
T:This hymn is in the public domain. You may freely use this score for personal and congregational worship. If you reproduce the score, please credit Hymnary.org as the source. 
Z:This hymn is in the public domain. You may freely use this score for personal and congregational worship. If you reproduce the score, please credit Hymnary.org as the source.
%%score ( 1 2 ) ( 3 4 )
L:1/8
M:4/4
K:F
V:1 treble nm="SOPRANO ALTO" snm="S. A."
V:2 treble 
V:3 bass nm="TENOR BASS" snm="T. B."
V:4 bass 
V:1
"^Capo 3:""^F(D)" (A"^Refrain"G) AG | F6 C2 | FG A4 F2 | A3 A"^Bb(G)" B2"^F(D)" A2 | %4
w: There _ is a|balm in|Gil- e- ad to|make the wound- ed|
w: ||||
"^C7(A7)" (G4 B4) | (AG) AG |"^F(D)" F6 C2 | FG A4"^Bb(G)" F2 |"^F/C(D/A)" A3 F"^C7(A7)" A2 G2 | %9
w: whole, *|there _ is a|balm in|Gil- e- ad to|heal the sin- sick|
w: |||||
"^F(D)" F6 |"^1""^2" (FF) | A3 F A2 A2 | B2 c4"^Bb(G)" (BB) |"^F(D)" A2 A2 c2 A2 |"^C(A)" G6 |1 %15
w: soul.|Some- *|times I feel dis-|cour- aged and _|think my work's in|vain,|
w: |If you|can- not preach like|Pe- ter, if you|can- not pray like|Paul,|
"^Bb(G)" (FF) |"^F(D)" A3 F A2 A2 |"^Bb(G)" B2"^F7(D7)" c4"^Gm(Em)" B2 | %18
w: but _|then the Ho- ly|Spir- it re-|
w: you can|tell the love of|Je- sus and|
"^F/C(D/A)" A3 F"^C7(A7)" A2 G2 |"^Dm(Bm)" (F4"^Refrain""^Bb(G)" B4) || %20
w: vives my soul a-|gain. *|
w: say, "He died for|all." *|
V:2
 F2 FD | C6 B,2 | CC F4 F2 | F3 F F2 F2 | E8 | E2 EE | C6 C2 | FF F4 F2 | F3 F E2 E2 | C6 | (CC) | %11
 F3 C F2 F2 | F2 F4 (FF) | F2 F2 F2 F2 | E6 |1 (DD) | F3 F F2 F2 | G2 A4 G2 | F3 F E2 E2 | %19
 (D4 F4) || %20
V:3
 (CB,) CB, | A,6 G,2 | A,B, C4 G,2 | C3 C D2 C2 | (B,4 D4) | (CB,) CB, | A,6 B,2 | A,B, C4 B,2 | %8
 C3 A, C2 B,2 | A,6 | (A,A,) | C3 A, C2 C2 | G,2 A,4 (DD) | C2 C2 C2 C2 | C6 |1 (B,B,) | %16
 C3 A, C2 C2 | D2 _E4 D2 | C3 A, C2 B,2 | (A,4 D4) || %20
V:4
 F,2 F,F, | F,6 F,2 | F,F, F,4 F,2 | F,3 F, F,2 F,2 | C,8 | C,2 C,C, | F,6 G,2 | F,F, F,4 D,2 | %8
 C,3 C, C,2 C,2 | F,6 | (F,F,) | F,3 F, F,2 F,2 | F,2 F,4 (F,F,) | F,2 F,2 A,2 F,2 | C,6 |1 %15
 (C,C,) | F,3 F, F,2 F,2 | F,2 F,4 B,,2 | C,3 C, C,2 C,2 | (D,4 B,,4) || %20

